src/22/actions/go-first.svg

<svg xmlns="http://www.w3.org/2000/svg" viewBox="0 0 22 22">
  <defs id="defs3051">
    <style type="text/css" id="current-color-scheme">
      .ColorScheme-Text {
        color:#5d656b;
      }
      </style>
  </defs>
 <path 
    style="fill:currentColor;fill-opacity:1;stroke:none" 
    d="M 5 3 L 5 19 L 6 19 L 6 3 L 5 3 z M 16.292969 3 L 10.167969 9.125 L 8.2929688 11 L 10.167969 12.875 L 16.292969 19 L 17 18.292969 L 10.875 12.167969 L 9.7070312 11 L 10.875 9.8320312 L 17 3.7070312 L 16.292969 3 z "
    class="ColorScheme-Text"
    />  
</svg>

<svg xmlns="http://www.w3.org/2000/svg" viewBox="0 0 22 22"><path d="M5 3v16h1V3H5zm11.293 0l-6.125 6.125L8.293 11l1.875 1.875L16.293 19l.707-.707-6.125-6.125L9.707 11l1.168-1.168L17 3.707 16.293 3z" fill="currentColor" color="#5d656b"/></svg>
